X:94
T:Girl With The Blue Dress On
R:Polka
M:4/4
L:1/8
K:G
  |:d2 Bd c2 Ac|B2 G2 GFGB|A2 F2 FEFG|A2 G2 G2 Bc|
  | d2 Bd c2 Ac|B2 G2 GFGB|A2 F2 FEFG|1 A2 G2 G2:|2 A2 G2 G2 d2|
  |:G2 Bd g3 f|f2 e2 e4|D2 FA f3 e|e2 d2 d4|
  | G2 Bd g3 f|f2 e2 e2 g2|fg af e2 f2|1 g6 d2:|2 g6 Bc|
